!!!OTL: Bold Princess Royal
!!!ONM: 53.
**kern
*clefG2
*k[b-]
*F:
*M3/4
*MM120
{8f
8f
=1
4f
4a
4cc
=2
4dd
4cc}
{4a
=3
4g
4.f
8e
=4
4.f
8r}
{8a
8a
=5
4a
4g
4f
=6
4e
4g}
{4dd
=7
4dd
4.cc
8a
=8
4.cc
8r}
{4cc
=9
4cc
4dd
4ee
=10
4ff
4a}
{8g
8g
=11
4a
4g
4dd
=12
4.cc
8r}
{4a
=13
4a
4g
4f
=14
4g
4cc}
{4e
=15
4g
4.f
8e
=16
4.f
8r}
==
*-
!!!CNT: Folksongs of Maritime Canada
!!!MRD: 1928///-1932///
!!!OCL: Helen Creighton
!!!YOR: Songs and Ballads from Nova Scotia
!!!PPR: J.M. Dent & Sons, Limited
!!!PPP: Toronto, Canada
!!!PDT: 1932///
!!!reprint: Dover Publications, 1992: ISBN 0-486-21703-5
!!!ENC1: Craig Stuart Sapp (music and bibliographic data)                       
!!!ENC2: Marcus Pearce (phrase markings and key designations)                   
!!!ENC3: Darrell Conklin (phrase markings and key designations)   
!!!END: 2002/04/10/
!!!EEV: 2004/06/05
!!!MPN: Mr. William Faulkner
!!!PPG: 107
!!!EFL: 54/152
!!!ARE: Canada; Nova Scotia
!!!verses: 8
!!!VTS: 2629212680
